X: 271
T: Beni Bîzâr Ederken Serzenişler
C: Hacı Ârif Bey
O: Turkey
F: http://compmusic.upf.edu/node/140
N: suzinak-zirgule--sarki--aksak--beni_bizar--haci_arif_bey
N: makam= suzinak-zirgule
N: form= sarki
N: usul= aksak = 9/8
M: 9/8
L: 1/16
K: C _1/4B _7/8e _7/8A ^f
Q: 1/4=132
%%MIDI tuningsystem comma53
g3f f3e e3d gfed c2 | de degf eddc cBcd efg2  | 
w:  ARANAĞME  |   | 
g3f f3e e2de gfed c2 | Bc dedc cBBA AGGA Bcde/f/  | 
w:   |   | 
g3f f3e e3d gfed c2 | de degf eddc cBcd efg2  | 
w:  ARANAĞME  |   | 
g3f f3e e2de gfed c2 | Bc dedc cBBA AGGA Bcde  | 
w:   |   | 
c2d6 d2{f}ed dede {f}dc | z2 c2c2 cBBA AGG3def  | 
w:  Of   |  of  *  *  *  *  *  *  *  *  SAZ  | 
g2g2 f2e2 d2c2 gfe2 ed | {f}d6 dedc Bcd2 BAG2  | 
w:  *  of   |  *  of  SAZ  | 
c2d6 e3d dede dc | c2 c2c2 B2BA AGG6  | \
w:  Be ni  bî *  zâr   |  e der *  *  ken   | 
z2GA B2c2 d2{e}cB {e}f2e2 {f}ed | 
w:  ser *  *  ze niş  | 
d6 dedc Bc.d.f e/d/c/e/d2  | d3e f2g2 a2gf g6 | 
w:  ler   SAZ  |  Of   | 
g/f/g2ff/e/f2{g}ee/d/e {f}edde dedc  | \
w:  of   | 
z2fg =a2gf f2{g}ed g2fe {f}ed | 
w:  of   | 
d6 dedc Bcd3/2=a/ gfed  | c2d4g2 f{g}f/=a/g2 g4 g{a}f | 
w:  of   SAZ  |  Yü rek *  te   | 
f3ee3dd2 edde dedc  | z2c4d2 e2d2 f2e2 d2 | 
w:  şim *  *  *  di   |  tîr_ i  hic *  *  *  rin   | 
d{e}d {e}c4 dedc BAB4AG  | zG2A B2c2 d2e2 g2f2 e2 | 
w:  iş *  *  *  *  *  *  ler    |  Of   | 
d/c/d2{e}cB/A/B2AG4d6  | d3c c3B B2{c}AG c2BA AG | 
w:  of   |  of   | 
G6 _2/4e=fgf efg=a fag2  | =f2g4f/_2/4e/f g3/2_b/=ag g4 f/_1/4e/f | 
w:  of   SAZ  |  De ğil  *  *  *  bî *  *  *  hû  | 
=a_b agg=f f_2/4ef_3/4e edd4c2  | \
w:  de  *  *  *  bu  *  *  *  fer *  *  *  yâd   | 
{c}_b2b2 =a2g2 =f2_3/4e2 gf_7/8e2 ed | 
w:  *  e diş  | 
d6 dedc Bcdf e/d/c/e/d2  | d3e f2g2 a2gf g6 | 
w:  ler   SAZ  |  Of   | 
g/f/g2ff/e/f2{g}ee/d/e {f}edde dedc  | \
w:  of   | 
z2fg =a2gf f2{g}ed g2fe {f}ed | 
w:  of   | 
d6 dedc Bcd3/2=a/ gfed  | c2d4g2 f{g}f/=a/g2 g4 g{a}f | 
w:  of   SAZ  |  Yü rek *  te   | 
f3ee3dd2 edde dedc  | z2c4d2 e2d2 f2e2 d2 | 
w:  şim *  *  *  di   |  tîr_ i  hic *  *  *  rin   | 
d{e}d {e}c4 dedc BAB4AG  | zG2A B2c2 d2e2 g2f2 e2 | 
w:  iş *  *  *  *  *  *  ler    |  Of   | 
d/c/d2{e}cB/A/B2AG4d6  | d3c c3B B2{c}AG c2BA AG | 
w:  of   |  of   | 
G6 |
w:  of    | 


